!!!SOCIAL_FUNCTION:	songs for success in ball game
!!!PDT:	1956
!!!OTL: No_228_Ball_Game_Song_(k).krn
!!!LANG: Non-Tone
!!!LING_GROUP: Muskogean
!!!REG: Florida
**kern
*staff1
=1-
*clefF4
*k[b-]
*M2/4
8.c\L
16c\Jk
8c\L
16B-\Jk
16r
=2
8c\L
8A\J
8A\
8r
=3
8.c\L
16d\Jk
(16c\LL
16A\)
(16A\
16F\JJ)
=4||
*M3/4
8A\L
8F\J
8F\L
16.A\L
32c\JJk
16A\LL
16F\
16A\
16F\JJ
=5||
*M2/4
8A\L
16F\L
16F\JJ
8F\
8r
=6
8.F\L
16A\Jk
8F\L
16B-\L
16B-\JJ
=7||
*M3/4
8A\L
8F\J
8F\L
16c\L
16c\JJ
8B-\L
16A\L
16F\JJ
=8||
*M2/4
8A\L
8F\J
8F\
8r
=9
8.F\L
16A\Jk
8F\L
16B-\L
16B-\JJ
=10||
*M3/8
8A\L
8F\
8F\J
=11
*M2/4
2c\
==
*-
